X:5
M:none
L:1/4
K:D
z d d2 d2 A2 B (d2 c) B2 A2 | z d c2 B2 A2 B (G2 F E2) D2 | z d d2 d2 A2 B (d2 c) B2 A2 | z d c2 B2 A2 B (G2 F E2) D2 | z D (F3/2 G/ A) (B2 A2) ^G A2 | D2 A2 B2 c2 d2 | z2 c2 d2 c2 B2 A2 | B2 B2 A B2 A F2 | z !sintro!d c2 B2 A2 B (G2 F E2) D2 !eintro!|]
